X:4591
L:1/16
M:2/4
K:F
 C2 | (CEG2) (Bcea) | [Bg]4 [Af]4 | .e2(eg) d2e2 | .d2(Ad) c2>C2 | (CEG2) (Bcea) | [Bg]4 [Af]4 | 
 .e2(eg) d2e2 | f2f2f2 :: g2 | (gB).d2 (fb).a2 | [eg]4 [ce]4 | f2fe d2dc | B2BA G2.e2 | 
 (gB).d2 (fb).a2 | [eg]4 [ce]4 | f2fe d2B2 | c2e2c2 :: e2 | (eA)(Ae) (Ae).A2 | [eg]4 [ce]4 | 
 .c2(ce) .A2(Ac) | .B2(Bd) f2=e2 | (_eA)(Ae) (Ae).A2 | [eg]4 [df]4 | .c2(ce) .A2(Ac) | B2d2B2 :|

